X: 264
T:Michael's Mazurka
C:Michael Ferrie
M:3/4
L:1/8
Q:3/4=40
K:G
D2   | G4    A/B/c|B2 BA GF   |EG  GB AG   |   FG  FE    DF |
       G4    A/B/c|B2 BA GF   |EG  GB A/G/F|   G4          :|
K:GDor
D2   | G3  A Bc   |d2 dc BG   |A^F AF DF   |   G>A B/c/d g2 |
       G2 GA Bc   |d3  c BG   |A^F AF DF   |   G4          :|
K:G
A/B/d|:g6         |d4    cB   |A2  a3  g   |   fd  cd    ef |
       g4    b2   |g4    d/c/B|A2  a3  g   |   fd  cA    FD |
       G2 AB G2   |A2 Bc A2   |B2  cd B2   |   c2  de    c2 |
       d2 g4      |f3  g a/g/f|g3   f ga   |[1 g3   d    Bd:|\
                                            [2 g4          |]

Modal music has a wider range of possibilities.  The oldest notated
version of the song "Tibbie Fowler" is very simple:

